X:3408
T:La Louise (version Pauvert)
O:england
M:3/8
L:1/8
K:C
Gcd|fed|cde|c2B|\
Gcd|fed|cde|d3:|
|:def|g2a/g/|fd/e/d/e/|fed|\
cd/e/d/e/|fed|1 cd/e/d/c/|BG2:|2 cd/e/d/B/|c3||
